src/icons/svg/Public.svg

<!-- Generated by IcoMoon.io -->
<svg version="1.1" xmlns="http://www.w3.org/2000/svg" width="24" height="24" viewBox="0 0 24 24">
<title>public</title>
<path fill="#444" d="M23.974 11.248c-0.387-6.277-5.599-11.25-11.974-11.25s-11.587 4.973-11.974 11.25h-0.026v1.5h0.026c0.387 6.277 5.599 11.249 11.974 11.249s11.587-4.972 11.974-11.249h0.026v-1.5h-0.026zM20.031 5.248h-1.337c-0.794 0.221-1.762 0.402-2.847 0.531-0.372-1.634-0.886-3.013-1.497-4.014 2.261 0.517 4.239 1.767 5.68 3.482v0zM9.008 12.748h5.983c-0.028 1.382-0.132 2.69-0.299 3.873-0.861-0.079-1.761-0.123-2.693-0.123s-1.832 0.044-2.693 0.123c-0.166-1.183-0.271-2.491-0.299-3.873v0zM9.008 11.248c0.028-1.384 0.133-2.693 0.299-3.877 0.86 0.081 1.761 0.127 2.693 0.127s1.833-0.046 2.692-0.127c0.166 1.184 0.271 2.493 0.299 3.877h-5.983zM12 1.498c1.008 0 1.899 1.742 2.443 4.412-0.778 0.055-1.594 0.088-2.443 0.088s-1.665-0.033-2.443-0.088c0.543-2.67 1.434-4.412 2.443-4.412v0zM9.648 1.766c-0.611 1.001-1.125 2.379-1.497 4.014-1.084-0.129-2.053-0.31-2.847-0.531h-1.337c1.442-1.715 3.42-2.965 5.681-3.483v0zM3.449 5.921c1.113 0.558 2.643 1.002 4.428 1.275-0.206 1.254-0.335 2.619-0.368 4.053h-5.977c0.14-1.979 0.832-3.804 1.917-5.328v0zM7.509 12.748c0.033 1.431 0.162 2.792 0.367 4.044-1.786 0.265-3.325 0.695-4.458 1.238-1.066-1.516-1.747-3.323-1.885-5.282h5.977zM3.968 18.748h1.239c0.819-0.225 1.82-0.409 2.943-0.539 0.372 1.638 0.887 3.020 1.499 4.022-2.261-0.517-4.239-1.767-5.681-3.483v0zM12 22.498c-1.008 0-1.9-1.744-2.444-4.416 0.779-0.054 1.595-0.085 2.444-0.085s1.665 0.032 2.444 0.085c-0.543 2.672-1.435 4.416-2.444 4.416v0zM14.35 22.231c0.612-1.002 1.127-2.384 1.499-4.021 1.123 0.13 2.124 0.314 2.943 0.539h1.239c-1.442 1.715-3.42 2.965-5.681 3.482v0zM20.581 18.030c-1.133-0.543-2.672-0.973-4.458-1.237 0.205-1.252 0.334-2.613 0.367-4.044h5.977c-0.139 1.959-0.819 3.766-1.886 5.281v0zM16.49 11.248c-0.033-1.435-0.162-2.799-0.368-4.053 1.785-0.273 3.315-0.717 4.428-1.275 1.085 1.525 1.776 3.349 1.917 5.328l-5.977 0z"></path>
</svg>

<svg width="24" height="24" viewBox="0 0 24 24" fill="none" xmlns="http://www.w3.org/2000/svg">
<g clip-path="url(#clip0)">
<path d="M23.974 11.248C23.587 4.971 18.375 -0.0019989 12 -0.0019989C5.625 -0.0019989 0.413 4.971 0.026 11.248H0V12.748H0.026C0.413 19.025 5.625 23.997 12 23.997C18.375 23.997 23.587 19.025 23.974 12.748H24V11.248H23.974ZM20.031 5.248H18.694C17.9 5.469 16.932 5.65 15.847 5.779C15.475 4.145 14.961 2.766 14.35 1.765C16.611 2.282 18.589 3.532 20.03 5.247L20.031 5.248ZM9.008 12.748H14.991C14.963 14.13 14.859 15.438 14.692 16.621C13.831 16.542 12.931 16.498 11.999 16.498C11.067 16.498 10.167 16.542 9.306 16.621C9.14 15.438 9.035 14.13 9.007 12.748H9.008ZM9.008 11.248C9.036 9.864 9.141 8.555 9.307 7.371C10.167 7.452 11.068 7.498 12 7.498C12.932 7.498 13.833 7.452 14.692 7.371C14.858 8.555 14.963 9.864 14.991 11.248H9.008ZM12 1.498C13.008 1.498 13.899 3.24 14.443 5.91C13.665 5.965 12.849 5.998 12 5.998C11.151 5.998 10.335 5.965 9.557 5.91C10.1 3.24 10.991 1.498 12 1.498V1.498ZM9.648 1.766C9.037 2.767 8.523 4.145 8.151 5.78C7.067 5.651 6.098 5.47 5.304 5.249H3.967C5.409 3.534 7.387 2.284 9.648 1.766V1.766ZM3.449 5.921C4.562 6.479 6.092 6.923 7.877 7.196C7.671 8.45 7.542 9.815 7.509 11.249H1.532C1.672 9.27 2.364 7.445 3.449 5.921V5.921ZM7.509 12.748C7.542 14.179 7.671 15.54 7.876 16.792C6.09 17.057 4.551 17.487 3.418 18.03C2.352 16.514 1.671 14.707 1.533 12.748H7.51H7.509ZM3.968 18.748H5.207C6.026 18.523 7.027 18.339 8.15 18.209C8.522 19.847 9.037 21.229 9.649 22.231C7.388 21.714 5.41 20.464 3.968 18.748V18.748ZM12 22.498C10.992 22.498 10.1 20.754 9.556 18.082C10.335 18.028 11.151 17.997 12 17.997C12.849 17.997 13.665 18.029 14.444 18.082C13.901 20.754 13.009 22.498 12 22.498ZM14.35 22.231C14.962 21.229 15.477 19.847 15.849 18.21C16.972 18.34 17.973 18.524 18.792 18.749H20.031C18.589 20.464 16.611 21.714 14.35 22.231V22.231ZM20.581 18.03C19.448 17.487 17.909 17.057 16.123 16.793C16.328 15.541 16.457 14.18 16.49 12.749H22.467C22.328 14.708 21.648 16.515 20.581 18.03V18.03ZM16.49 11.248C16.457 9.813 16.328 8.449 16.122 7.195C17.907 6.922 19.437 6.478 20.55 5.92C21.635 7.445 22.326 9.269 22.467 11.248H16.49V11.248Z" fill="#1C2125"/>
</g>
<defs>
<clipPath id="clip0">
<rect width="24" height="24" fill="white"/>
</clipPath>
</defs>
</svg>
